X:1
T:Title
%%score { ( 1 3 ) | 2 }
L:1/8
M:6/8
K:E
V:1 treble nm="Grand Piano"
V:3 treble 
V:2 bass 
V:1
 z3 z2[Q:1/4=95] E | G2 G G2 [GB] | [Ac]2 [GB] G2 E | G<G[FA] [GB]2 [EG] |[M:5/8] [EG]3 [DF]2 | %5
[M:1/8] E |[M:3/4] G2 G G2 [GB] | [Ac]2 [GB] G2 E | [EG]<[EG] [EG] [A,DF]2 [A,DF] | %9
[M:5/8] [G,E]-[G,E]- [G,E]3 |[M:1/8] [EGB] |[M:3/4] z2 z .c3 | B4 z2 | [Ge]<[Ge] [Fe] d2 c | d6 | %15
[M:1/8] d |[M:3/4] [Ge]2 [Ge] [Ad]2 [Ac] | [GB]2 [GB] E2 F | G<G G [DF]2 [DF] |[M:5/8] E-E- E3 |] %20
V:2
 z3 z2 [E,G,] | [E,B,E]2 [E,B,E] [E,B,E]2 [E,E] | [E,E]2 [E,E] [E,B,E]2 [E,G,] | %3
 [E,B,E]<[E,B,E][E,B,] [E,E]2 [E,B,] |[M:5/8] [B,,B,]3 [B,,B,]2 |[M:1/8] [E,G,] | %6
[M:3/4] [E,B,E]2 [E,B,E] [E,B,E]2 [E,E] | [E,E]2 [E,E] [E,B,E]2 [E,G,] | %8
 [B,,B,]<[B,,B,] [B,,B,] B,,2 B,, |[M:5/8] E,-E,- E,3 |[M:1/8] E, | %11
[M:3/4] A,<A, A,A,,/A,,/- A,,C, | E,2 E, [E,B,]2 [E,B,] | %13
 [C,C]<[C,C] [C,^A,][K:treble] [F,B,F]2 [F,A,F] | [B,F]2 B, [B,F]3 |[M:1/8] [B,A] | %16
[M:3/4][K:bass] [E,B,]2 [E,B,] [E,C]2 [E,D] | [E,E]2 [E,E] [G,B,]2 [A,CE] | %18
 [B,E]<[B,E] [B,E] [B,,A,]2 [B,,A,] |[M:5/8] [E,G,]-[E,G,]- [E,G,]3 |] %20
V:3
 x6 | x6 | x6 | x6 |[M:5/8] x5 |[M:1/8] x |[M:3/4] x6 | x6 | x6 |[M:5/8] x5 |[M:1/8] x | %11
[M:3/4] [EAc]<[EAc] [EAc][EA]/[EA]/- [EA][EAe] | [EG]2 [EG] [EG]2 [GB] | x6 | z2 G A3 |[M:1/8] x | %16
[M:3/4] x6 | x6 | x6 |[M:5/8] x5 |] %20

